iOS/DuckDuckGo/Assets.xcassets/DesignSystemIcons/24px/Bookmarks-Open-24.imageset/Bookmarks-Open-24.svg

<svg width="24" height="24" viewBox="0 0 24 24" fill="none" xmlns="http://www.w3.org/2000/svg">
<path fill-rule="evenodd" clip-rule="evenodd" d="M12.0001 3.89514C15.2954 2.43846 18.495 3.07678 20.1515 3.60313C21.3556 3.9857 22.0002 5.11747 22.0002 6.2361V18.7943C22.0002 19.6295 21.5019 20.2636 20.9264 20.5996C20.3562 20.9324 19.5962 21.0462 18.8927 20.7504C17.3039 20.0824 14.8834 19.545 12.4912 20.8712C12.4848 20.8748 12.4784 20.8783 12.472 20.8818C12.3217 20.9622 12.1598 21.0004 12.0001 21.0002C11.8404 21.0004 11.6785 20.9622 11.5283 20.8818C11.5218 20.8783 11.5154 20.8748 11.509 20.8712C9.11681 19.545 6.69638 20.0824 5.10759 20.7504C4.40401 21.0462 3.64404 20.9324 3.07388 20.5996C2.49833 20.2636 2 19.6295 2 18.7943V6.2361C2 5.11747 2.64466 3.9857 3.84872 3.60313C5.50529 3.07678 8.70484 2.43846 12.0001 3.89514ZM13 18.4738V5.64286C15.5894 4.57596 18.1309 5.05965 19.5459 5.50923C19.7858 5.58545 20.0002 5.83965 20.0002 6.2361V18.7943L20.0002 18.7957L19.9994 18.7977C19.9994 18.7977 19.9975 18.8016 19.9954 18.8049C19.9863 18.819 19.963 18.8461 19.9181 18.8723C19.8163 18.9317 19.7162 18.9271 19.6678 18.9068C18.1102 18.2519 15.6357 17.6065 13 18.4738ZM4.45435 5.50923C5.86925 5.05967 8.41071 4.57599 11 5.64276V18.4737C8.36435 17.6066 5.89003 18.2519 4.33243 18.9068C4.284 18.9271 4.18397 18.9317 4.08212 18.8723C4.03728 18.8461 4.01398 18.819 4.00489 18.8049C4.00278 18.8016 4.00087 18.7977 4.00087 18.7977L4.00004 18.7957L4 18.7943V6.2361C4 5.83965 4.21445 5.58545 4.45435 5.50923Z" fill="black" fill-opacity="0.84"/>
</svg>

<svg fill="none" viewBox="0 0 24 24" xmlns="http://www.w3.org/2000/svg">
  <path fill="#000" fill-rule="evenodd" d="M12 3.895c3.295-1.457 6.495-.818 8.151-.292 1.205.383 1.85 1.514 1.85 2.633v12.558c0 .835-.5 1.47-1.075 1.806-.57.332-1.33.446-2.033.15-1.59-.668-4.01-1.205-6.402.121a.995.995 0 0 1-.982 0c-2.392-1.326-4.813-.789-6.401-.12-.704.295-1.464.181-2.034-.151C2.498 20.264 2 19.63 2 18.794V6.236c0-1.119.645-2.25 1.849-2.633 1.656-.526 4.856-1.165 8.151.292Zm1 14.579V5.643c2.59-1.067 5.13-.583 6.546-.134.24.076.454.33.454.727v12.562l-.005.007a.23.23 0 0 1-.077.067.3.3 0 0 1-.25.035c-1.558-.655-4.032-1.3-6.668-.433ZM4.454 5.509c1.415-.45 3.957-.933 6.546.134v12.83c-2.636-.866-5.11-.221-6.668.434a.3.3 0 0 1-.25-.035.23.23 0 0 1-.081-.074L4 18.796V6.236c0-.396.214-.65.454-.727Z" clip-rule="evenodd"/>
</svg>
